X:1
T:Bredon Hill and Other Songs
T:Bredon Hill
T:Bredon Hill and Other Songs
T:George Butterworth
T:1. Bredon Hill
T:Alfred Edward Housman
T:Creative Commons copyright waiver (CC0 1.0 Universal)
T:Creative Commons copyright waiver (CC0 1.0 Universal)
T:Creative Commons copyright waiver (CC0 1.0 Universal)
T:Creative Commons copyright waiver (CC0 1.0 Universal)
T:Creative Commons copyright waiver (CC0 1.0 Universal)
T:Creative Commons copyright waiver (CC0 1.0 Universal)
T:Creative Commons copyright waiver (CC0 1.0 Universal)
T:Creative Commons copyright waiver (CC0 1.0 Universal)
C:George Butterworth
Z:Alfred Edward Housman
Z:Creative Commons copyright waiver (CC0 1.0 Universal)
%%score ( 1 2 ) { ( 3 5 ) | ( 4 6 ) }
L:1/8
Q:1/4=120
M:4/4
K:F
V:1 treble nm="Voice"
V:2 treble 
V:3 treble nm="Piano"
V:5 treble 
V:4 bass 
V:6 bass 
V:1
"^Con anima" z | z8 | z4 z2!p! A2 | G3 C C2 G2 | A4 F2 A2 | G2 C2 F2 d2 | c8- | c2 z2 z2!mp! c2 | %8
w: ||In|sum- mer time on|Bre- don The|bells they sound so|clear;|_ Round|
 c3 A A2 c2 | %9
w: both the shires they|
 c4"^cre       -             -             -       scen    -             -             -       do" A2 c2 | %10
w: ring them In|
 c3 c _A2 c2 | c6!f! c2 | e7 c | d6 G2 | c8- | c2 z2 z4 | z8 | z8 | z8 | z8 |!p! G2 C C C2 G2 | %21
w: steep- les far and|near, A|hap- py|noise to|hear.|_|||||Here of a Sun- day|
 A4 F2 A2 | G2 C2 F2 d2 | c8- | c2 z2 z2 c2 | c3 A A2 c2 | c4 A2"^cresc." c2 | ^c3 c A2 c2 | %28
w: morn- ing My|love and I would|lie,|_ And|see the col- oured|coun- ties, And|hear the larks so|
 ^c6!f! c2 | ^e8- | e3 ^d d2 ^G2 ||[K:F#] c8- | c2 z2 z4 | z8 | z8 | z8 | z4 z2!p! A2 | %37
w: high A-|bout|_ us in the|sky.|_||||The|
 G3 C C2 G2 | A4 F2 A2 | G2 C2 F2 d2 | c8- | c2 z2 z2!mp! c2 | c3 c A2 c2 | c4 A2 c2 | d6 c2 | %45
w: bells would ring to|call her In|val- leys miles a-|way:|_ “Come|all to church, good|peo- ple; Good|peo- ple|
 (B2 A2 G2) F2 | G8- | G2 z2 z2!p! G2 |[Q:1/4=116] B6 B2 || %49
w: come _ _ and|pray.”|_ But|here my|
[M:3/2]"^rit."[Q:1/4=112]!<(! B8-!<)!!>(! B2!>)! =A2 || %50
w: love _ would|
[K:G][M:4/4]"^a tempo" G4- G2 z2[Q:1/4=120] | z8 | z8 | z8 | z8 | z4 z2!p! B2 | A3 D D2 A2 | %57
w: stay. _|||||And|I would turn and|
 B4 G2 B2 | A2 D2 G2 e2 | d8- | d2 z2 z2!f! d2 | d3 d B2 d2 | d4 B2 d2 | d2 d2 B2 d2 | %64
w: ans- wer A-|mong the spring- ing|thyme,|_ “Oh,|peal up- on our|wed- ding, And|we will hear the|
 e6"^più forte"!ff! e2 | (f2 e2 d2) ^c2 | B6 A2 |!<(! e8-!<)! |!>(! e4- e2 z2!>)! | z8 | z8 | %71
w: chime, And|come _ _ to|church in|time.”|_ _|||
[Q:1/4=118] z8 |[Q:1/4=114] z8[Q:1/4=110] |[Q:1/4=100] z8 | z8 || %75
w: ||||
[K:Bb][Q:1/4=110]"^Tempo moderato" z8 | z4 z2!p! A2 | G3 C C2 G2 | A4 !tenuto!.F2 A2 | G3 C C2 G2 | %80
w: |But|when the snows at|Christ- mas On|Bre- don top were|
 A4 z2 A2 | G2 C2 C2 G2 | A4 !tenuto!.F2 A2 | G2 (CD) (EF) (GB) | A4 z2!mp! (GA) || %85
w: strown. My|love rose up so|ear- ly And|stole out * un- * be- *|known And *|
[M:3/2] B3 B B4 !fermata!z2!p! A2 ||[M:4/4][Q:1/4=104]!mp!!>(! G8-!>)! | G2 z2 z2 B2 | A3 D D2 A2 | %89
w: went to church a-|lone.|_ They|tolled the one bell|
 B4 G2 z2 | A2 D D D2 A2 | B4 z2 B2 | A2 D2 D2 A2 | B4 !tenuto!.G2 B2 | A2 (CD) (EF) (GA) || %95
w: on- ly,|Groom there was none to|see, The|mourn- ers fol- lowed|af- ter, And|so to * church * went *|
[M:3/2] B4 z2 D2!<(! G2 B2!<)! | d8!>(! c4!>)! ||[M:4/4] !fermata!B4- B2 z2 | z8 | z8 | %100
w: she, And would not|wait for|me. _|||
 z4 z2!pp![Q:1/4=110] A2 ||[K:F] G3 C C2 G2 | A4 F2 A2 | G2 C2 F2 d2 | %104
w: The|bells they sound on|Bre- don, And|still the steep- les|
[Q:1/4=112]!<(! c8-[Q:1/4=116]!<)! |[Q:1/4=120]!mf! c2 z2[Q:1/4=124] z2!f! c2 | c2 c2 (AB) (cd) | %107
w: hum.|_ “Come|all to church, * good *|
 e4 c z!p!!<(! c2 |[Q:1/4=128] c2 c2 c2 c2 ||[M:3/2] c8 z2!<)!!ff! c2 ||[M:4/4] !fermata!g8 | %111
w: peo- ple.” \- O|noi- sy bells, be|dumb; I|hear|
 F4 !fermata!z4 |"^a piacere" z4!f! _A4- |!>(! !fermata!A4 G4!>)! | %114
w: you,|I|_ will|
[Q:1/4=100]"^Tempo moderato"!p! F8- |!>(! F8- | F2!>)! z2[Q:1/4=96] z4[Q:1/4=84] | z8 | z8 | %119
w: come.|_||||
[Q:1/4=72]"^Lento" z8 |[Q:1/4=50] z8 | !fermata!z8 |] %122
w: |||
V:2
 x | x8 | x8 | x8 | x8 | x8 | x8 | x8 | x8 | x8 | x8 | x8 | x8 | x8 | x8 | x8 | x8 | x8 | x8 | x8 | %20
 x8 | x8 | x8 | x8 | x8 | x8 | x8 | x8 | x8 | x8 | x8 ||[K:F#] x8 | x8 | x8 | x8 | x8 | x8 | x8 | %38
 x8 | x8 | x8 | x8 | x8 | x8 | x8 | x8 | x8 | x8 | x8 ||[M:3/2] x12 ||[K:G][M:4/4] x8 | x8 | x8 | %53
 x8 | x8 | x8 | x8 | x8 | x8 | x8 | x8 | x8 | x8 | x8 | x8 | x8 | x8 | x8 | x8 | x8 | x8 | x8 | %72
 x8 | x8 | x8 ||[K:Bb] x8 | x8 | x8 | x8 | x8 | x8 | x8 | x8 | x8 | x8 ||[M:3/2] x12 ||[M:4/4] x8 | %87
 x8 | x8 | x8 | x8 | x8 | x8 | x8 | x8 ||[M:3/2] x12 | x12 ||[M:4/4] x8 | x8 | x8 | x8 ||[K:F] x8 | %102
 x8 | x8 | x4"^animando molto" x4 | x8 | x8 | x8 | x8 ||[M:3/2] x12 ||[M:4/4] x4!>(! x4 | %111
 x4!>)! x4 | x8 | x8 | x4!<(! x4!<)! | x8 | x8 | x8 | x8 | x8 | x8 | x8 |] %122
V:3
!mf! (!fermata![FAd] | [EGc]6) z!pp! ([FAd] | [EGc]6) ([FAd]2 |!p! [Ec]4 [Ec]4 | [Fc]6) ([FAd]2 | %5
 [Ec-]4 c2 [FAd]2 | c8- |!>(! [FAc-]8)!>)! | (cAFD DFAc) | %9
 (c3 d)"_cre       -             -             -       scen    -             -             -       do" (d3 c) | %10
 (c_AFD DFAc) | (c3 d) (d3 c) |!mf! (e!<(!cAF FAce) | (dBGE EGBd)!<)! |!f! [FAc]7 [GBd] | %15
 [FAc]7 [GBd] | ([FAc]4!<(! [FAd]4!<)! | f6 e2) | [EGc]7 ([FAd] | [EGc]6)!pp! ([FAd]2 | %20
!p! [Ec]4 [Ec]4 | [Fc]6) ([FAd]2 | [Ec-]4 c2 [FAd]2 | c8- | [FAc-]8) | (cAFD DFAc) | %26
 (c3 d) (d3"_cresc." c) | (^cA^F^D DFAc) | (^c3 ^d) (d3 c) |!mf!!<(! (^e^c^A^F FAce) | %30
 (^d=B^G^E EGBd)!<)! ||[K:F#]!f! [FAc]7 [GBd] | [FAc]7 [GBd] |!<(! ([FAc]4 [FAd]4!<)! | %34
!>(! f6 e2)!>)! |"_dimin." [EGc]7 ([FAd] | [EGc]6)!pp! ([FAd]2 | [Ec]4 [Ec]4 | [Fc]6) ([FAd]2 | %39
 [Ec]4 c2 [FAd]2 | c8- | [FAc-]8) |!mf! (cAFA cAFA | cGEG cAFA | BFDF BB,CA | %45
 G[I:staff +1]G,A,[I:staff -1]F =E2 DC) |!<(! (B,G,B,D GBdg!<)! | b!>(!gdB GD!>)!!p! B,2) | %48
 z!<(! (B,=EG B=egb ||[M:3/2]"_rit." =e'bg=e)!<)! (e'=c'!>(!=ae =c=A[=CF]!>)!=d) || %50
[K:G][M:4/4]!f! [GBd]7 [Ace] | [GBd]7 [Ace] | ([GBd]4 [GBe]4 | g6 f2) | [FAd]7 ([GBe] | %55
 [FAd]6)!p! ([GBe]2 | [Ec]4 [Ec]4 | [Gd]6) ([GBe]2 | [Fd-]4 d2 [GBe]2 | d8- | [GBd-]8) | %61
!mf!!<(! (dBGB dBGB | dAFA dBGB | dAFA dBGB | eB^GB e^cA!<)!!f!c | [Af]) z z2 z4 | %66
!mf!!<(! (DEF^G AB^cd)!<)! |!f! (!^!e^GFd ^cEDB) |!f! (!^!e^GFd ^cEDB) |!ff! (a^cB!>(!^g fA^Ge | %70
 dFE^c BD!>)!^C!mf!A) | (_BD=CA"_dim.         e         rall." =G_B,A,=F | %72
[K:bass] _EG,=F,D C_E,D,_B,) |"_pesante"!mp! !arpeggio![^C,A,]2 z2 !arpeggio![=C,G,_B,]2 z2 | %74
 z4[K:treble]!p! [^C=EA]2 z2 ||[K:Bb] !breath!!fermata![EGB]8 | [^C=EA]8 | [_EGB]8 | [CEA]8 | %79
 [EGB]8 | [^C=EA]8 | [_EGB]8 | [CEA]8 | [EGB]8 | [^C=EA]8 ||[M:3/2] ([_EGB]8 [CEA]4 || %86
[M:4/4] [B,DG]2) z2 z4 | z4 z2 [GBe]2 | [FAd-]8 | [Gd]6 [GBe]2 | [FAd-]8 | [Gd]6 [GBe]2 | [FAd-]8 | %93
 [Gd]6 [GBe]2 | [FAd-]8 ||[M:3/2] [GBd]8"_cresc." [GBe]4 | [GBd]8!>(! [F_Ac]4!>)! || %97
[M:4/4]!p!!>(! [EGB]8 | [CEA]8 | [EGB]8 | [^C=EA]8!>)! ||[K:F]!pp! [EGB]8 | [CFA]8 | %103
 ([EGB]4 [FA]4) | ([EG]4"_animando molto" [DF]4- |!<(! [DF]2 [CE]2 [DF]2 [EG]2 | %106
 [FA]2 [GB]2 [Ac]2 [Bd]2)!<)! |!f! ([Gce]4 c3 d) | ([Gce]4 [Ac]) z ([Ge]E) || %109
[M:3/2]"_cresc." [_Ac]2 z2 z4 z4 ||[M:4/4]!ff!!8va(! [bb']8- | [bb']4!8va)! !fermata!z4 | %112
!f! [_A,F_A]8- |!>(! [A,FA]4 [G,_EG]4!>)! |!p!{/F,} ([_DF]7 [_EG] |!>(! [_DF]7 [_EG]!>)! | %116
!pp! [_DF]4!<(! [_EG]4)!<)! | !arpeggio!!fermata![_D_E_B]8 | %118
!p! !arpeggio![^C=EA] !fermata!z!mp! !breath!!tenuto![B,=DG]6 |[K:bass]!pp! (([D,D]4 [C,C]4-)) | %120
!>(! [C,A,C]4 [C,A,C]4!>)! |!ppp! !fermata![C,A,C]8 |] %122
V:4
 z | z8 | z8 |!ped! (B,C,B,C, B,C,B,C,!ped-up! |!ped! A,!<(!C,F,!ped-up!G,!<)!!>(! A,G,F,C,!>)! | %5
!ped! B,C,B,C,!ped-up! A,G,F,C, | B,C,B,C, A,C,B,C, | CDCB, A,G,F,E,) | %8
!ped! (D,F,A,C CA,F,D,)!ped-up! |!ped! (D,F,A,C CA,F,D,)!ped-up! | %10
!ped! (B,,F,_A,C CA,F,B,,)!ped-up! |!ped! (B,,F,_A,C CA,F,B,,)!ped-up! | %12
!ped! (G,,D,F,=A, A,F,D,G,,)!ped-up! |!ped! (C,E,G,B, B,G,E,C,)!ped-up! | %14
!ped! ([F,,F,]G,F,!ped-up!E, D,C,D,E,) |!ped! ([F,,F,]G,F,!ped-up!E, D,C,D,E,) | %16
!ped! ([F,,F,]G,F,!ped-up!E, D,C,B,,A,, |!ped! G,,A,,B,,C,!ped-up!!ped! (5:4:5D,E,F,G,A,)!ped-up! | %18
 (B,CB,"^dimin."A, G,F,G,A,) | (B,CB,A, G,F,G,A,) | (B,C,B,C, B,C,B,C, | A,C,F,G, A,G,F,C, | %22
 B,C,B,C, A,G,F,C, | B,!<(!C,B,C, A,C,B,C,) | C!<)!!>(!DCB, A,G,F,E,!>)! | (D,F,A,C CA,F,D,) | %26
 (D,F,A,C CA,F,D,) | (=B,,^F,A,^C CA,F,B,,) | (=B,,^F,A,^C CA,F,B,,) | %29
!ped! (^G,,^D,^F,^A, A,F,D,!ped-up!G,,) |!ped! (^C,^E,^G,=B, B,G,E,!ped-up!C,) || %31
[K:F#]!ped! ([F,,F,]G,F,!ped-up!E, D,C,D,E,) | ([F,,F,]G,F,E, D,C,D,E,) | %33
 ([F,,F,]G,F,E, D,C,B,,A,, | G,,A,,B,,C, (5:4:5D,E,F,G,A,) | (B,CB,A, G,F,G,A,) | %36
 (B,CB,A, G,F,G,A,) |!ped! (B,C,B,C, B,C,B,C,!ped-up! |!ped! A,C,F,!ped-up!G, A,G,F,C,) | %39
!ped! (B,C,B,C,!ped-up! A,G,F,C, | B,C,B,C, A,C,B,C, | CDCB, CB,A,G,) | (F,A,CA, F,CA,F, | %43
 C,G,CG, F,CA,F, | B,,F,B,F, B,,D,F,F,, | G,,B,,D,D,, =E,,G,,B,,A,,) | [G,,D,]8- | %47
 [G,,D,]2 z2 z2 G,,D, | [G,,=E,]8- ||[M:3/2] [G,,E,]2 z2 ([=A,,=E,=C]6 =D,2) || %50
[K:G][M:4/4] ([G,,G,]A,G,F, E,D,E,F,) | ([G,,G,]A,G,F, E,D,E,F,) | ([G,,G,]A,G,F, E,D,C,B,, | %53
 A,,B,,C,D, (5:4:5E,F,G,A,B,) | (CDCB,"^dim." A,G,A,B,) | (CDCB, A,G,A,B,) | %56
!ped! (CC,CC, CC,C!ped-up!C, | B,D,G,A, B,A,G,D,) | (CD,CD, B,A,G,D, | CD,CD, B,D,CD, | %60
 DEDC DCB,A,) |!ped! (G,B,DB,!ped-up! G,DB,G, |!ped! D,A,DA,!ped-up! G,DB,G, | %63
!ped! D,A,DA,!ped-up! G,DB,G, |!ped! E,B,EB,!ped-up! A,E^CA, | [F,^C]) z z2 z4 | %66
 !tenuto![B,,B,]2 !tenuto![A,,A,]2 !tenuto![^G,,^G,]2 !tenuto![F,,F,]2 | !^![E,,E,]8 | %68
 !^![^C,,^C,]8 |!ped! !arpeggio![F,,^C,A,]2 z2 z4 | z8!ped-up! | %71
!ped! !arpeggio![=C,,G,,_E,]2 z2 z4 | z8!ped-up! | [^F,,=E,]2 z2 [=C,,_E,]2 z2 | z4 ^F,2 z2 || %75
[K:Bb] [C,C]8 | ^F,8 | [=C,=C]8 | F,8 | [C,C]8 | ^F,8 | [=C,=C]8 | F,8 | [C,C]8 | ^F,8 || %85
[M:3/2] ([=C,=C]8 F,4 ||[M:4/4] G,2) !fermata!z2 !tenuto!G,4- | G,4 !tenuto!G,4- | C8 | B,8 | C8 | %91
 B,8 | C8 | B,8 | C8 ||[M:3/2] D8 D4 | [A,,E]8 [B,,D]4 ||[M:4/4] [C,C]8 | F,8 | [C,C]8 | ^F,8 || %101
[K:F] [=C,=C]8 | F,8 | [C,C]8 | B,C,B,C, A,C,A,C, | A,C,G,C, A,C,B,C, | CC,DC, EC,FC, | %107
 z (C,G,C) z (F,A,C) | z (C,G,C F,[A,C]) (C,[G,C]) || %109
[M:3/2]!ped! (F,_A,CD[I:staff -1] FAcd (3f_ac' (3d'f'_a')!ped-up! || %110
[M:4/4]!ped![I:staff +1] [B,,_A,D]8- | [B,,A,D]4!ped-up! !fermata!z4 | [G,,,G,,]8- | %113
 [G,,,G,,]4 [=A,,,=A,,]4 |!ped! (A,=B,A,G, F,!ped-up!_E,F,G, |!ped! A,=B,A,G, F,_E,!ped-up!F,G, | %116
!ped! A,=B,A,G, F,_E,_D,=B,,)!ped-up! | !fermata![!courtesy!=A,,G,]8 | G, z !breath!!tenuto!F,6 | %119
 [F,,,F,,]8- | [F,,,F,,]4 [F,,,F,,]4 | !fermata![F,,,F,,]8 |] %122
V:5
 x | x8 | x8 | G3 A G3 A | x8 | G3 A F2 x2 | [EG]4!<(! [DF]2 [EG]2!<)! | x8 | x8 | (cAFD DFAc) | %10
 x8 | c_AFD DFAc | x8 | x8 | x8 | x8 | x8 | [GB]8 | x8 | x8 | G3 A G3 A | x8 | G3 A F2 x2 | %23
 [EG]4 [DF]2 [EG]2 | x8 | x8 | (cAFD DFAc) | x8 | (^cA^F^D DFAc) | x8 | x8 ||[K:F#] x8 | x8 | x8 | %34
 [GB]8 | x8 | x8 | G3 A G3 A | x8 | G3 A F2 x2 | %40
 [EG]4 [DF]2"_cre     -            -      scen      -           -      do" [EG]2 | x8 | x8 | x8 | %44
 x8 | x4 =E[I:staff +1]=E, F,2 | x8 | x8 | x8 ||[M:3/2] x12 ||[K:G][M:4/4] x8 | x8 | x8 | %53
[I:staff -1] [Ac]8 | x8 | x8 | G3 A G3 A | x8 | A3 B G2 x2 | %59
 [FA]4"_cre     -            -      scen      -           -      do" [EG]2 [FA]2 | x8 | x8 | x8 | %63
 x8 | x8 | x8 | x8 | x8 | x8 | x8 | x8 | x8 |[K:bass] x8 | x8 | x4[K:treble] x4 ||[K:Bb] x8 | x8 | %77
 x8 | x8 | x8 | x8 | x8 | x8 | x8 | x8 ||[M:3/2] x12 ||[M:4/4] x8 | x8 | x8 | x8 | x8 | x8 | x8 | %93
 x8 | x8 ||[M:3/2] x12 | x12 ||[M:4/4] x8 | x8 | x8 | x8 ||[K:F] x8 | x8 | x8 | x8 | x8 | x8 | %107
 x4 [FA]4 | x8 ||[M:3/2] x12 ||[M:4/4]!8va(! x8 | x4!8va)! x4 | x8 | x8 | x8 | x8 | x8 | x8 | x8 | %119
[K:bass] A,8- | x8 | x8 |] %122
V:6
 x | x8 | x8 | x8 | x8 | x8 | x8 | x8 | x8 | x8 | x8 | x8 | x8 | x8 | x8 | x8 | x8 | x8 | C,8 | %19
 C,8 | x8 | x8 | x8 | x8 | x8 | x8 | x8 | x8 | x8 | x8 | x8 ||[K:F#] x8 | x8 | x8 | x8 | C,8 | %36
 C,8 | x8 | x8 | x8 | x8 | x8 | x8 | x8 | x8 | x8 | x8 | x6 G,,2- | x8 ||[M:3/2] x12 || %50
[K:G][M:4/4] x8 | x8 | x8 | x8 | D,8 | D,8 | x8 | x8 | x8 | x8 | x8 | x8 | x8 | x8 | x8 | x8 | x8 | %67
 x8 | x8 | x8 | x2 x2 x2 x2 | x8 | x2 x2 x2 x2 | x8 | x8 ||[K:Bb] x8 | x8 | x8 | x8 | x8 | x8 | %81
 x8 | x8 | x8 | x8 ||[M:3/2] x12 ||[M:4/4] x8 | x8 | G,4 !tenuto!G,4- | G,4 !tenuto!G,4- | %90
 G,4 !tenuto!G,4- | G,4 !tenuto!F,4- | F,4 !tenuto!E,4- | E,4 !tenuto!D,4- | D,4 !tenuto!C,4- || %95
[M:3/2] C,4 !tenuto!B,,8 | x12 ||[M:4/4] x8 | x8 | x8 | x8 ||[K:F] x8 | x8 | x8 | x8 | x8 | x8 | %107
 x8 | x8 ||[M:3/2] x12 ||[M:4/4] x8 | x8 | x8 | x8 |{/=B,,,} =B,,8 | =B,,8 | =B,,8 | x8 | B,,8 | %119
 x8 | x8 | x8 |] %122

